X:0160
T:The Amorous Goddess.
M:2/4
L:1/8
Q:1/4=144
I: :: ::
Z:Jack Campin * www.campin.me.uk * 2009
K:D
f2 e/f/g |faag|fedc|dAA2|f2(e/f/g)|faag|fedc|d2d2:|
f2(f/e/d)|eaac|dfed|cAA2|aeec     |fBBd|c2B2|A3 z |
f2(e/f/g)|faag|fedc|dAA2|f2(e/f/g)|faag|fedc|d2d2|]
<end>
<start>
